X:1
T: Miss L. Montgomery of Skelmorlies' Strathspey
C:
R:Strathspey
Q: 128
K:Bb
M:4/4
L:1/16
|:F2|B,4 B,3B B2A2 G2F2|G3F G2B2 c2C2 C2D2|B,4 B,3B B2A2 G2F2|GAB2 cde2 d2B2 B2D2|
B,4 B,3B B2A2 G2F2|G3F G2B2 c2C2 C2D2|B,4 B,3B B2A2 G2F2|GAB2 cde2 d2B2 B2de|
f3B f3d f2B2 g3f|f2B2 f3d d2c2 c2de|fB3 f3d fB3 g3B|F3B c2Bc d2B2 B2de|
f3B f3d f2B2 g3f|f2B2 f3d d2c2 c2de|B,4 B,3B B2A2 G2F2|GAB2 cde2 d2B2 B2:|
